rospo-light/16x16/actions/contrast.svg

<svg height="16" viewBox="0 0 16 16" width="16" xmlns="http://www.w3.org/2000/svg"><path d="m7.5.0390625v1.8125h1v-1.8125zm-4.8125 1.9707031-.71875.7167969 1.28125 1.3125.71875-.75zm10.625 0-1.28125 1.2792969.71875.75 1.28125-1.3125zm-5.3125 1.0292969c-2.7614 0-5 2.2386-5 5 0 2.7614005 2.2386 4.9999995 5 4.9999995s5-2.238599 5-4.9999995c0-2.7614-2.2386-5-5-5zm0 1v7.9999995c-2.2091 0-4-1.791-4-3.9999995 0-2.2091 1.7909-4 4-4zm-8 3.5v1h1.8125v-1zm14.189453 0v1h1.8125v-1zm-10.939453 4.5312495-1.28125 1.28125.71875.71875 1.28125-1.28125zm9.5 0-.71875.71875 1.28125 1.28125.71875-.71875zm-5.25 2.15625v1.8125h1v-1.8125z" fill="#5c616c"/></svg>

<?xml version="1.0" encoding="UTF-8" standalone="no"?>
<svg xmlns="http://www.w3.org/2000/svg" width="22" height="22" viewBox="0 0 22 22">
 <defs>
  <style type="text/css" id="current-color-scheme">
   .ColorScheme-Text { color:#5c616c; } .ColorScheme-Highlight { color:#5294e2; }
  </style>
 </defs>
 <path style="fill:currentColor;opacity:1" class="ColorScheme-Text" transform="translate(3 3)" d="M 7.5 0.0390625 L 7.5 1.8515625 L 8.5 1.8515625 L 8.5 0.0390625 L 7.5 0.0390625 z M 2.6875 2.0097656 L 1.96875 2.7265625 L 3.25 4.0390625 L 3.96875 3.2890625 L 2.6875 2.0097656 z M 13.3125 2.0097656 L 12.03125 3.2890625 L 12.75 4.0390625 L 14.03125 2.7265625 L 13.3125 2.0097656 z M 8 3.0390625 C 5.2386 3.0390625 3 5.2776625 3 8.0390625 C 3 10.800463 5.2386 13.039062 8 13.039062 C 10.7614 13.039062 13 10.800463 13 8.0390625 C 13 5.2776625 10.7614 3.0390625 8 3.0390625 z M 8 4.0390625 L 8 12.039062 C 5.7909 12.039062 4 10.248062 4 8.0390625 C 4 5.8299625 5.7909 4.0390625 8 4.0390625 z M 0 7.5390625 L 0 8.5390625 L 1.8125 8.5390625 L 1.8125 7.5390625 L 0 7.5390625 z M 14.189453 7.5390625 L 14.189453 8.5390625 L 16.001953 8.5390625 L 16.001953 7.5390625 L 14.189453 7.5390625 z M 3.25 12.070312 L 1.96875 13.351562 L 2.6875 14.070312 L 3.96875 12.789062 L 3.25 12.070312 z M 12.75 12.070312 L 12.03125 12.789062 L 13.3125 14.070312 L 14.03125 13.351562 L 12.75 12.070312 z M 7.5 14.226562 L 7.5 16.039062 L 8.5 16.039062 L 8.5 14.226562 L 7.5 14.226562 z"/>
</svg>
